X: 21273
T: Kelliher's
R: jig
M: 6/8
K: Aminor
|:A,AA cde|{^F}GGG EAD|~A3 cde|(3aag e gaa|
A,AA cde|GAG EAD|(3aag e d^de|dcA A (3EFG:|
|:cFF cde|dGG {c}BAG|AAa ged|egf ~e2 d|
[1 cFF cde|dGG {c}BAG|AEA (3Bcd e|dcA ~A3:|
[2 cFF cde|dGG deg|age ~e2 d|edc dcB||

